!!!SOCIAL_FUNCTION: songs connected with ceremonies
!!!SOCIAL_FUNCTION2: Buffalo dance
!!!PDT:	1929
!!!LING_GROUP: Caddoan
!!!LANG: Non-Tone
!!!REG: Oklahoma
!!!COM: Anon.
!!!OTL: Yonder the Smoke Was Standing
!!!ODT: <1920//
!!!MPN: Tutukrawitsu [He overtook the enemy, Wicita Blain]
!!!MLC: Pawnee, Oklahoma, United States of America
!! Song was recorded either 1919 or 1920.
!!!AGN: monody
!!!AMT: irregular
!!!RWG: Transcribed pitches, durations, and meters are only approximate.
!! Drum Tempo:  MM132; changing to 116
!! Drum-rhythm: (8 8 8 8 8 8)
**kern	**silbe
*ICvox	*LPawnee
*Imale	*
*clefF4	*
*k[f#]	*
*M2/4	*M2/4
*MM116	*MM116
=1-	=1-
8d	Ti
8d	wa-
8d	-ka
8d	o
=2	=2
8.d;	rex
16d	ru
8d	ka-
8d	-ta
*M3/4	*M3/4
=3	=3
4d	wi-
2d	-a
*M2/4	*M2/4
=4	=4
8d	ra
8e	i
8d	ta-
8d	-wi
*M3/4	*M3/4
=5	=5
4A	rex
(16A	ru
8G)	|
16A	u
8.A	ka-
16E	-ta
*M2/4	*M2/4
=6	=6
4E	wi-
4D	-a
=7	=7
(16E	ra-
8D)	|
16E	hu
8.E	ka-
16D	-ta
=8	=8
4D	wi-
[4D	-a
=9	=9
2D]	|
=10	=10
4e	ra-
12d	-ta
12d	a
12d	ra
=11	=11
8.e	wis
16d	a-
4d	-ri-
*M3/4	*M3/4
=12	=12
4A	-ki
(16A	rex
8G)	|
16A	ru
8.A	ka-
16E	-ta
*M2/4	*M2/4
=13	=13
4E	wi-
4D	-a
=14	=14
(16E	ra
8D)	|
16E	hu
8.E	ka-
16D	-ta
=15	=15
4D	wi-
[4D	-a
=16	=16
2D]	|
==	==
*-	*-
!!!HAO: [no description]
!!!HTX: He said, the man was coming along the line,
!!!HTX: This is what I was told about it,
!!!HTX: He was coming along the line,
!!!HTX: Yonder the smoke was standing here and there,
!!!HTX: He was coming along the line.
!!!CNT: Pawnee
!!!TXO: Pawnee
!!!OCY: United States
!!!OCL: Frances Densmore
!!!YOR: Frances Densmore, "Pawnee Music"
!!!YOR: Bulletin 93, page 30, No. 5
!!!PPR: Smithsonian Institution, Bureau of American Ethnology
!!!PPR: Government Printing Office
!!!PDT: 1926
!!!PPP: Washington, DC, United States of America
!!!YEC: Electronic Copyright 2000 David Huron
!!!YER: September 2000
!!!YEN: United States of America
!!!ENC: David Huron
!!!RDT: September 1, 2000
!!!EEV: Release 1.0
!!!AIN: tom, vox
